file/nat-geo.svg

<svg clip-rule="evenodd" fill-rule="evenodd" stroke-linejoin="round" stroke-miterlimit="1.41421" viewBox="0 0 560 400" xmlns="http://www.w3.org/2000/svg"><g fill-rule="nonzero" transform="matrix(.972592 0 0 .972592 85.5521 54.6004)"><path d="m14.855 94.396v110.202h75.895v-110.202zm64.916 99.105h-53.977v-88.003h53.979z" fill="#fbd42c"/><path d="m135.975 132.818h-.105c-6.055-9.861-12.166-18.572-18.332-27.34h-4.702v38.356h5.191v-27.509h.052c6.114 9.919 12.223 18.688 18.392 27.508h4.702v-38.356h-5.196zm37.477 11.015-12.061-38.356h-5.406l-13.086 38.356h5.624l3.3-10.467h11.407l2.977 10.467zm-19.955-15.181c1.517-5.042 3.029-9.691 4.382-15.617h.108c1.517 5.923 2.866 10.575 4.271 15.617zm26.062 15.181h6.49v-33.204h9.951v-5.151h-26.389v5.151h9.948zm24.982-38.355h-6.433v38.356h6.433zm20.012 39.008c9.897 0 16.063-8.928 16.063-20.381 0-10.739-6.817-19.289-16.063-19.289-9.247 0-16.064 8.55-16.064 19.289 0 11.456 6.164 20.381 16.064 20.381zm0-34.187c6.436 0 9.138 6.738 9.138 13.809 0 7.341-2.377 14.902-9.138 14.902-6.76 0-9.139-7.56-9.139-14.902.002-7.071 2.705-13.809 9.139-13.809zm25.196 6.026h.061c6.106 9.919 12.218 18.688 18.384 27.508h4.702v-38.356h-5.188v27.34h-.108c-6.054-9.861-12.166-18.572-18.33-27.34h-4.705v38.356h5.188zm33.794 17.042h11.415l2.975 10.467h7.243l-12.057-38.356h-5.407l-13.09 38.356h5.63zm6.064-20.332h.106c1.512 5.923 2.862 10.575 4.271 15.617h-8.767c1.522-5.042 3.033-9.694 4.39-15.617zm36.711 25.645h-12.813v-33.203h-6.438v38.356h19.253v-5.153zm-195.633 49.023c-1.354.714-2.812.936-4.541.936-5.566 0-10.978-5.373-10.978-14.468 0-8.711 4.703-14.247 11.626-14.247 2.487 0 5.191.93 6.921 2.024l2.106-4.546c-2.159-1.646-5.677-2.959-9.191-2.959-11.354 0-18.385 9.148-18.385 19.613 0 11.289 7.03 20.06 18.166 20.06 3.679 0 7.302-.979 10.767-2.357v-15.84h-6.491zm18.87-11.78h10.601v-5.147h-10.601v-10.521h10.817v-5.149h-17.306v38.356h19.251v-5.153h-12.764zm30.828-21.48c-9.249 0-16.06 8.549-16.06 19.289 0 11.453 6.163 20.386 16.06 20.386 9.896 0 16.059-8.933 16.059-20.386-.003-10.74-6.814-19.289-16.059-19.289zm0 34.196c-6.762 0-9.141-7.563-9.141-14.906 0-7.068 2.703-13.811 9.141-13.811 6.436 0 9.137 6.737 9.137 13.811-.002 7.341-2.378 14.906-9.137 14.906zm40.717-.936c-1.352.714-2.813.936-4.543.936-5.571 0-10.979-5.373-10.979-14.468 0-8.711 4.705-14.247 11.63-14.247 2.485 0 5.191.93 6.916 2.024l2.109-4.546c-2.161-1.646-5.679-2.959-9.195-2.959-11.352 0-18.379 9.148-18.379 19.613 0 11.289 7.028 20.06 18.17 20.06 3.672 0 7.295-.979 10.759-2.357v-15.84h-6.488zm34.284-21.529c0-7.458-4.488-11.07-11.73-11.07h-10.114v38.357h6.486v-14.467h2.921l6.109 14.467h7.405l-7.62-15.893c4.16-2.248 6.543-6.795 6.543-11.394zm-12.654 7.889c-.65.056-2.169.11-2.707.164v-13.971h2.871c3.833 0 5.995 2.242 5.995 6.188 0 5.15-3.078 7.452-6.159 7.619zm26.93-18.959-13.09 38.357h5.621l3.301-10.47h11.41l2.979 10.47h7.24l-12.061-38.357zm-2.486 23.181c1.514-5.046 3.025-9.703 4.38-15.62h.109c1.511 5.917 2.861 10.574 4.271 15.62zm67.429-8.441h-13.467v-14.74h-6.435v38.357h6.435v-18.469h13.467v18.469h6.487v-38.251h-6.487zm12.702 23.613h6.437v-38.354h-6.437zm29.15-4.818c-6.273 0-11.575-5.373-11.575-14.468 0-8.711 4.817-14.247 11.413-14.247 2.487 0 5.084 1.149 6.652 2.135l2.055-4.65c-2.22-1.536-5.352-2.965-8.705-2.965-11.303 0-18.279 9.152-18.279 19.619 0 11.289 7.03 20.058 18.176 20.058 3.134 0 6.593-1.263 8.54-2.627l-1.783-4.771c-1.678 1.091-4.006 1.916-6.494 1.916zm-77.165-33.535h-10.105v38.357h6.488v-14.467h2.917c7.736 0 12.437-6.361 12.437-12.82-.003-7.458-4.485-11.07-11.737-11.07zm-.917 18.959c-.648.049-2.216.104-2.702.152v-13.961h2.917c3.787 0 5.951 2.242 5.951 6.189-.002 5.151-3.085 7.453-6.166 7.62z"/></g></svg>

<?xml version="1.0" encoding="UTF-8" standalone="no"?>
<!DOCTYPE svg PUBLIC "-//W3C//DTD SVG 1.1//EN" "http://www.w3.org/Graphics/SVG/1.1/DTD/svg11.dtd">
<svg width="100%" height="100%" viewBox="0 0 560 400" version="1.1" xmlns="http://www.w3.org/2000/svg" xmlns:xlink="http://www.w3.org/1999/xlink" xml:space="preserve" xmlns:serif="http://www.serif.com/" style="fill-rule:evenodd;clip-rule:evenodd;stroke-linejoin:round;stroke-miterlimit:1.41421;">
    <g transform="matrix(0.972592,0,0,0.972592,85.5521,54.6004)">
        <path id="border" d="M14.855,94.396L14.855,204.598L90.75,204.598L90.75,94.396L14.855,94.396ZM79.771,193.501L25.794,193.501L25.794,105.498L79.773,105.498L79.771,193.501Z" style="fill:rgb(251,212,44);fill-rule:nonzero;"/>
        <path id="natgeo" d="M135.975,132.818L135.87,132.818C129.815,122.957 123.704,114.246 117.538,105.478L112.836,105.478L112.836,143.834L118.027,143.834L118.027,116.325L118.079,116.325C124.193,126.244 130.302,135.013 136.471,143.833L141.173,143.833L141.173,105.477L135.977,105.477L135.975,132.818ZM173.452,143.833L161.391,105.477L155.985,105.477L142.899,143.833L148.523,143.833L151.823,133.366L163.23,133.366L166.207,143.833L173.452,143.833ZM153.497,128.652C155.014,123.61 156.526,118.961 157.879,113.035L157.987,113.035C159.504,118.958 160.853,123.61 162.258,128.652L153.497,128.652ZM179.559,143.833L186.049,143.833L186.049,110.629L196,110.629L196,105.478L169.611,105.478L169.611,110.629L179.559,110.629L179.559,143.833ZM204.541,105.478L198.108,105.478L198.108,143.834L204.541,143.834L204.541,105.478ZM224.553,144.486C234.45,144.486 240.616,135.558 240.616,124.105C240.616,113.366 233.799,104.816 224.553,104.816C215.306,104.816 208.489,113.366 208.489,124.105C208.489,135.561 214.653,144.486 224.553,144.486ZM224.553,110.299C230.989,110.299 233.691,117.037 233.691,124.108C233.691,131.449 231.314,139.01 224.553,139.01C217.793,139.01 215.414,131.45 215.414,124.108C215.416,117.037 218.119,110.299 224.553,110.299ZM249.749,116.325L249.81,116.325C255.916,126.244 262.028,135.013 268.194,143.833L272.896,143.833L272.896,105.477L267.708,105.477L267.708,132.817L267.6,132.817C261.546,122.956 255.434,114.245 249.27,105.477L244.565,105.477L244.565,143.833L249.753,143.833L249.749,116.325ZM283.543,133.367L294.958,133.367L297.933,143.834L305.176,143.834L293.119,105.478L287.712,105.478L274.622,143.834L280.252,143.834L283.543,133.367ZM289.607,113.035L289.713,113.035C291.225,118.958 292.575,123.61 293.984,128.652L285.217,128.652C286.739,123.61 288.25,118.958 289.607,113.035ZM326.318,138.68L313.505,138.68L313.505,105.477L307.067,105.477L307.067,143.833L326.32,143.833L326.32,138.68L326.318,138.68ZM130.685,187.703C129.331,188.417 127.873,188.639 126.144,188.639C120.578,188.639 115.166,183.266 115.166,174.171C115.166,165.46 119.869,159.924 126.792,159.924C129.279,159.924 131.983,160.854 133.713,161.948L135.819,157.402C133.66,155.756 130.142,154.443 126.628,154.443C115.274,154.443 108.243,163.591 108.243,174.056C108.243,185.345 115.273,194.116 126.409,194.116C130.088,194.116 133.711,193.137 137.176,191.759L137.176,175.919L130.685,175.919L130.685,187.703ZM149.555,175.923L160.156,175.923L160.156,170.776L149.555,170.776L149.555,160.255L160.372,160.255L160.372,155.106L143.066,155.106L143.066,193.462L162.317,193.462L162.317,188.309L149.553,188.309L149.555,175.923ZM180.383,154.443C171.134,154.443 164.323,162.992 164.323,173.732C164.323,185.185 170.486,194.118 180.383,194.118C190.279,194.118 196.442,185.185 196.442,173.732C196.439,162.992 189.628,154.443 180.383,154.443ZM180.383,188.639C173.621,188.639 171.242,181.076 171.242,173.733C171.242,166.665 173.945,159.922 180.383,159.922C186.819,159.922 189.52,166.659 189.52,173.733C189.518,181.074 187.142,188.639 180.383,188.639ZM221.1,187.703C219.748,188.417 218.287,188.639 216.557,188.639C210.986,188.639 205.578,183.266 205.578,174.171C205.578,165.46 210.283,159.924 217.208,159.924C219.693,159.924 222.399,160.854 224.124,161.948L226.233,157.402C224.072,155.756 220.554,154.443 217.038,154.443C205.686,154.443 198.659,163.591 198.659,174.056C198.659,185.345 205.687,194.116 216.829,194.116C220.501,194.116 224.124,193.137 227.588,191.759L227.588,175.919L221.1,175.919L221.1,187.703ZM255.384,166.174C255.384,158.716 250.896,155.104 243.654,155.104L233.54,155.104L233.54,193.461L240.026,193.461L240.026,178.994L242.947,178.994L249.056,193.461L256.461,193.461L248.841,177.568C253.001,175.32 255.384,170.773 255.384,166.174ZM242.73,174.063C242.08,174.119 240.561,174.173 240.023,174.227L240.023,160.256L242.894,160.256C246.727,160.256 248.889,162.498 248.889,166.444C248.889,171.594 245.811,173.896 242.73,174.063ZM269.66,155.104L256.57,193.461L262.191,193.461L265.492,182.991L276.902,182.991L279.881,193.461L287.121,193.461L275.06,155.104L269.66,155.104ZM267.174,178.285C268.688,173.239 270.199,168.582 271.554,162.665L271.663,162.665C273.174,168.582 274.524,173.239 275.934,178.285L267.174,178.285ZM334.603,169.844L321.136,169.844L321.136,155.104L314.701,155.104L314.701,193.461L321.136,193.461L321.136,174.992L334.603,174.992L334.603,193.461L341.09,193.461L341.09,155.21L334.603,155.21L334.603,169.844ZM347.305,193.457L353.742,193.457L353.742,155.103L347.305,155.103L347.305,193.457ZM376.455,188.639C370.182,188.639 364.88,183.266 364.88,174.171C364.88,165.46 369.697,159.924 376.293,159.924C378.78,159.924 381.377,161.073 382.945,162.059L385,157.409C382.78,155.873 379.648,154.444 376.295,154.444C364.992,154.444 358.016,163.596 358.016,174.063C358.016,185.352 365.046,194.121 376.192,194.121C379.326,194.121 382.785,192.858 384.732,191.494L382.949,186.723C381.271,187.814 378.943,188.639 376.455,188.639ZM299.29,155.104L289.185,155.104L289.185,193.461L295.673,193.461L295.673,178.994L298.59,178.994C306.326,178.994 311.027,172.633 311.027,166.174C311.024,158.716 306.542,155.104 299.29,155.104ZM298.373,174.063C297.725,174.112 296.157,174.167 295.671,174.215L295.671,160.254L298.588,160.254C302.375,160.254 304.539,162.496 304.539,166.443C304.537,171.594 301.454,173.896 298.373,174.063Z" style="fill-rule:nonzero;"/>
    </g>
</svg>
